material/.icons/material/bluetooth-settings.svg

<svg xmlns="http://www.w3.org/2000/svg" viewBox="0 0 24 24"><path d="M14.88 14.29L13 16.17v-3.76l1.88 1.88M13 3.83l1.88 1.88L13 7.59m4.71-1.88L12 0h-1v7.59L6.41 3 5 4.41 10.59 10 5 15.59 6.41 17 11 12.41V20h1l5.71-5.71-4.3-4.29 4.3-4.29M15 24h2v-2h-2m-8 2h2v-2H7m4 2h2v-2h-2v2z"/></svg>

<?xml version="1.0" encoding="UTF-8"?><!DOCTYPE svg PUBLIC "-//W3C//DTD SVG 1.1//EN" "http://www.w3.org/Graphics/SVG/1.1/DTD/svg11.dtd"><svg xmlns="http://www.w3.org/2000/svg" xmlns:xlink="http://www.w3.org/1999/xlink" version="1.1" id="mdi-bluetooth-settings" width="24" height="24" viewBox="0 0 24 24"><path d="M14.88,14.29L13,16.17V12.41L14.88,14.29M13,3.83L14.88,5.71L13,7.59M17.71,5.71L12,0H11V7.59L6.41,3L5,4.41L10.59,10L5,15.59L6.41,17L11,12.41V20H12L17.71,14.29L13.41,10L17.71,5.71M15,24H17V22H15M7,24H9V22H7M11,24H13V22H11V24Z" /></svg>
